packages/design-system/src/icons/source/main_header_logo.svg

<svg width="88" height="24" viewBox="0 0 88 24" fill="none" xmlns="http://www.w3.org/2000/svg">
<path d="M8.94238 5.37988C12.5675 5.37988 15.5068 8.31321 15.5068 11.9316C15.5066 15.5498 12.5673 18.4824 8.94238 18.4824C7.90949 18.4824 6.93281 18.2437 6.06348 17.8193V24H2.37891V12.0459H2.38184C2.38118 12.0079 2.37891 11.9698 2.37891 11.9316C2.37891 8.31332 5.31745 5.38006 8.94238 5.37988ZM38.5928 6.82812H38.6621C38.8924 6.50629 39.1769 6.22989 39.5146 6C39.8677 5.75486 40.2515 5.57083 40.666 5.44824C41.0958 5.32568 41.5486 5.26468 42.0244 5.26465C43.1452 5.26465 44.1282 5.51769 44.9727 6.02344C45.8171 6.52918 46.4772 7.22637 46.9531 8.11523C47.4444 9.00405 47.6904 10.0459 47.6904 11.2412C47.6904 12.1606 47.5446 13.0114 47.2529 13.793C46.9613 14.5744 46.5389 15.2566 45.9863 15.8389C45.449 16.4058 44.7887 16.8429 44.0059 17.1494C43.2382 17.4559 42.3545 17.6094 41.3564 17.6094C40.0824 17.6093 38.9693 17.349 38.0176 16.8281C37.0656 16.3071 36.3287 15.5632 35.8066 14.5977C35.2847 13.6322 35.0235 12.506 35.0234 11.2188V0H38.5928V6.82812ZM55.6045 5.26465C56.9248 5.2647 58.0457 5.54012 58.9668 6.0918C59.9034 6.6282 60.6171 7.37208 61.1084 8.32227C61.615 9.25708 62.0146 10.307 62.0146 11.4717V17.5811H58.3682V15.4482H58.2754C58.0604 15.862 57.7841 16.238 57.4463 16.5752C57.1086 16.8968 56.6941 17.1492 56.2031 17.333C55.7272 17.5169 55.1591 17.6093 54.499 17.6094C53.4551 17.6094 52.5337 17.341 51.7354 16.8047C50.9369 16.2683 50.3144 15.5478 49.8691 14.6436C49.424 13.7241 49.2012 12.6893 49.2012 11.54C49.2012 10.3448 49.4624 9.27951 49.9844 8.34473C50.5064 7.39459 51.2434 6.6435 52.1953 6.0918C53.1626 5.54007 54.2994 5.26465 55.6045 5.26465ZM20.4824 17.5811H16.8896V5.54004H20.4824V17.5811ZM27.751 5.26465C28.9793 5.26465 30.024 5.50244 30.8838 5.97754C31.7588 6.45259 32.4271 7.08798 32.8877 7.88477C33.3483 8.68168 33.5781 9.57095 33.5781 10.5518V17.5811H30.0088V10.6436C30.0087 10.2299 29.9085 9.85464 29.709 9.51758C29.5094 9.16509 29.233 8.88869 28.8799 8.68945C28.5422 8.47499 28.1583 8.36818 27.7285 8.36816C27.2834 8.36816 26.8843 8.47508 26.5312 8.68945C26.1935 8.88869 25.9242 9.16509 25.7246 9.51758C25.5251 9.85462 25.4258 10.2299 25.4258 10.6436V17.5811H21.8555V10.5518C21.8555 9.57095 22.0934 8.68168 22.5693 7.88477C23.0453 7.08793 23.7216 6.45259 24.5967 5.97754C25.4871 5.50257 26.5383 5.26471 27.751 5.26465ZM72.415 8.55176H69.9199C69.3212 8.55179 68.8068 8.68188 68.377 8.94238C67.9471 9.18757 67.6089 9.53219 67.3633 9.97656C67.133 10.4057 67.0186 10.8965 67.0186 11.4482C67.0186 11.9998 67.1995 12.745 67.4297 13.1895C67.6754 13.6186 68.0135 13.9641 68.4434 14.2246C68.8732 14.4698 69.3876 14.5918 69.9863 14.5918H72.4814V17.5811H69.8486C68.6204 17.5811 67.53 17.3279 66.5781 16.8223C65.6263 16.3013 64.874 15.6038 64.3213 14.7305C63.7686 13.8416 63.4258 12.5823 63.4258 11.4482C63.4258 10.3141 63.7021 9.31009 64.2549 8.43652C64.8076 7.54777 65.5599 6.84231 66.5117 6.32129C67.4636 5.80034 68.5541 5.54004 69.7822 5.54004H72.415V8.55176ZM77.3877 10.2305H78.9531L81.6484 5.77051H85.3643L82.4541 10.6895C83.3753 11.0726 84.089 11.6631 84.5957 12.46C85.1177 13.2416 85.3789 14.1613 85.3789 15.2188V17.5635H81.7861V15.2188C81.7861 14.7897 81.6787 14.4065 81.4639 14.0693C81.2643 13.7169 80.9959 13.4404 80.6582 13.2412C80.3205 13.042 79.4369 12.9424 79.0068 12.9424H77.3877V17.5635H73.8174V0H77.3877V10.2305ZM8.94238 9.21094C7.4374 9.21111 6.21777 10.4294 6.21777 11.9316C6.21803 13.4337 7.43756 14.6512 8.94238 14.6514C10.4474 14.6514 11.6677 13.4338 11.668 11.9316C11.668 10.4293 10.4475 9.21094 8.94238 9.21094ZM41.3564 8.39062C40.804 8.3907 40.3206 8.529 39.9062 8.80469C39.5071 9.06519 39.1993 9.42509 38.9844 9.88477C38.7694 10.3445 38.6621 10.8659 38.6621 11.4482C38.6621 12.0304 38.7696 12.5592 38.9844 13.0342C39.1993 13.494 39.507 13.8618 39.9062 14.1377C40.3207 14.3981 40.8039 14.5292 41.3564 14.5293C41.9092 14.5293 42.386 14.3982 42.7852 14.1377C43.1842 13.8619 43.4912 13.4938 43.7061 13.0342C43.9362 12.5592 44.0518 12.0305 44.0518 11.4482C44.0517 10.8659 43.9363 10.3445 43.7061 9.88477C43.4911 9.42524 43.1842 9.06515 42.7852 8.80469C42.386 8.52882 41.9092 8.39062 41.3564 8.39062ZM55.5576 8.39062C55.0052 8.3907 54.5218 8.529 54.1074 8.80469C53.693 9.06514 53.378 9.4252 53.1631 9.88477C52.9481 10.3445 52.8408 10.8587 52.8408 11.4258C52.8409 12.008 52.9482 12.5367 53.1631 13.0117C53.378 13.4867 53.6929 13.8619 54.1074 14.1377C54.5219 14.3981 55.0051 14.5292 55.5576 14.5293C56.095 14.5293 56.5637 14.3982 56.9629 14.1377C57.3774 13.8619 57.6923 13.4867 57.9072 13.0117C58.1221 12.5367 58.2294 12.008 58.2295 11.4258C58.2295 10.8587 58.1222 10.3445 57.9072 9.88477C57.6923 9.42515 57.3773 9.06516 56.9629 8.80469C56.5637 8.52885 56.095 8.39062 55.5576 8.39062ZM18.6855 0C19.2536 0 19.7456 0.214435 20.1602 0.643555C20.5747 1.05734 20.7822 1.54821 20.7822 2.11523C20.7822 2.68205 20.5745 3.17227 20.1602 3.58594C19.7456 3.99973 19.2536 4.20703 18.6855 4.20703C18.1176 4.20694 17.6264 3.99964 17.2119 3.58594C16.7975 3.17225 16.5899 2.68209 16.5898 2.11523C16.5898 1.54818 16.7974 1.05735 17.2119 0.643555C17.6264 0.214561 18.1176 9.75438e-05 18.6855 0Z" fill="#54D19D"/>
</svg>

<svg xmlns="http://www.w3.org/2000/svg" fill="none" viewBox="0 0 88 24"><path fill="#54d19d" d="M8.942 5.38c3.626 0 6.565 2.933 6.565 6.552s-2.94 6.55-6.565 6.55a6.54 6.54 0 0 1-2.879-.663V24H2.38V12.046h.003l-.003-.114c0-3.619 2.938-6.552 6.563-6.552m29.65 1.448h.07A3.4 3.4 0 0 1 39.515 6a4 4 0 0 1 1.151-.552q.645-.183 1.358-.183 1.681 0 2.949.758a5.3 5.3 0 0 1 1.98 2.092q.737 1.333.737 3.126 0 1.38-.437 2.552a6 6 0 0 1-1.267 2.046 5.4 5.4 0 0 1-1.98 1.31q-1.152.46-2.65.46-1.911 0-3.338-.78a5.43 5.43 0 0 1-2.211-2.231q-.784-1.448-.784-3.38V0h3.57zm17.013-1.563q1.98 0 3.362.827a5.36 5.36 0 0 1 2.141 2.23c.507.935.907 1.985.907 3.15v6.11h-3.647v-2.134h-.093q-.321.621-.829 1.127a3.6 3.6 0 0 1-1.243.758q-.714.276-1.704.276-1.566 0-2.764-.804a5.45 5.45 0 0 1-1.866-2.161q-.668-1.38-.668-3.104 0-1.793.783-3.195a5.8 5.8 0 0 1 2.211-2.253q1.452-.828 3.41-.827M20.482 17.58H16.89V5.54h3.592zm7.269-12.316q1.843 0 3.133.713 1.312.712 2.004 1.907.69 1.195.69 2.667v7.03h-3.57v-6.938q0-.621-.299-1.126a2.15 2.15 0 0 0-.83-.829 2.1 2.1 0 0 0-1.15-.32 2.26 2.26 0 0 0-2.004 1.149q-.3.505-.3 1.126v6.937h-3.57v-7.03q0-1.471.714-2.666.715-1.195 2.028-1.907 1.335-.713 3.154-.713m44.664 3.287H69.92q-.898 0-1.543.39a2.63 2.63 0 0 0-1.014 1.035q-.344.644-.344 1.471c0 .552.18 1.297.41 1.742q.369.644 1.014 1.035.645.367 1.543.367h2.495v2.99H69.85q-1.844 0-3.27-.76a6.06 6.06 0 0 1-2.258-2.091c-.552-.89-.895-2.149-.895-3.283q0-1.701.829-3.011a6 6 0 0 1 2.257-2.116q1.428-.78 3.27-.781h2.633zm4.973 1.678h1.565l2.695-4.46h3.716l-2.91 4.92q1.382.575 2.142 1.77.783 1.172.783 2.759v2.345h-3.593v-2.345q0-.644-.322-1.15a2.2 2.2 0 0 0-.806-.828c-.338-.199-1.221-.299-1.651-.299h-1.62v4.622h-3.57V0h3.57zM8.942 9.21a2.723 2.723 0 0 0-2.724 2.722c0 1.502 1.22 2.72 2.724 2.72a2.723 2.723 0 0 0 2.726-2.72 2.723 2.723 0 0 0-2.726-2.721m32.414-.82q-.828 0-1.45.415-.599.39-.922 1.08-.322.69-.322 1.563t.322 1.586q.323.69.922 1.104.622.39 1.45.391.83 0 1.43-.391.597-.414.92-1.104a3.6 3.6 0 0 0 .346-1.586q0-.874-.346-1.563a2.55 2.55 0 0 0-.92-1.08q-.6-.414-1.43-.414m14.202 0q-.83 0-1.45.415-.622.39-.945 1.08t-.322 1.54q0 .874.322 1.587.323.712.944 1.126.622.39 1.45.391.807 0 1.406-.391.622-.414.944-1.126a3.8 3.8 0 0 0 .323-1.586q0-.852-.323-1.541-.323-.69-.944-1.08-.6-.414-1.405-.414M18.686 0q.852 0 1.474.644.622.62.622 1.471 0 .85-.622 1.47a2.02 2.02 0 0 1-1.474.622q-.852 0-1.474-.621a2 2 0 0 1-.622-1.47q0-.852.622-1.472.622-.645 1.474-.644"/></svg>
